src/img/services-icon-1.svg

<svg xmlns="http://www.w3.org/2000/svg" width="100.646" height="86.953"><path d="M96.33 4.315v78.323H4.315V4.315H96.33m0-4.315H4.315A4.315 4.315 0 0 0 0 4.315v78.323a4.315 4.315 0 0 0 4.315 4.315H96.33a4.315 4.315 0 0 0 4.315-4.315V4.315A4.315 4.315 0 0 0 96.33 0z" fill="#fff"/><path stroke-width="4" stroke="#fff" stroke-linecap="round" stroke-linejoin="round" fill="none" d="M4.343 4.315l10.137 7.588M4.24 82.565l10.344-7.44m.192 0V11.869m35.1 36.141v-5.83m0 22.12v-8.236m0 19.779v-2.805m18.733-5.389h6.123m1.105 7.172h9.899m-70.637 0h9.899m.19-7.172h7.064m-17.476-55.78h71.021m10.432 70.696L86.09 74.974M96.33 4.315l-10.344 7.44m-.189 0v63.256"/><path d="M31.653 84.711a25.521 25.521 0 1 1 36.475-.032" fill="none" stroke="#fff" stroke-miterlimit="10" stroke-width="4"/><path d="M49.876 67.273a1.7 1.7 0 1 1-1.7 1.7 1.7 1.7 0 0 1 1.7-1.7m0-4.315a6.02 6.02 0 1 0 6.02 6.02 6.02 6.02 0 0 0-6.02-6.02z" fill="#fff"/></svg>

<svg xmlns="http://www.w3.org/2000/svg" width="100.646" height="86.953"><path d="M96.33 4.315v78.323H4.315V4.315H96.33m0-4.315H4.315A4.315 4.315 0 0 0 0 4.315v78.323a4.315 4.315 0 0 0 4.315 4.315H96.33a4.315 4.315 0 0 0 4.315-4.315V4.315A4.315 4.315 0 0 0 96.33 0z" fill="#fff"/><path stroke-width="4" stroke="#fff" stroke-linecap="round" stroke-linejoin="round" fill="none" d="M4.343 4.315l10.137 7.588M4.24 82.565l10.344-7.44M14.776 75.125V11.869M49.876 48.01v-5.83M49.876 64.3v-8.236M49.876 75.843v-2.805M68.609 67.649h6.123M75.837 74.821h9.899M15.099 74.821h9.899M25.188 67.649h7.064M14.776 11.869h71.021M96.229 82.565L86.09 74.974M96.33 4.315l-10.344 7.44M85.797 11.755v63.256"/><path d="M31.653 84.711a25.521 25.521 0 1 1 36.475-.032" fill="none" stroke="#fff" stroke-miterlimit="10" stroke-width="4"/><path d="M49.876 67.273a1.7 1.7 0 1 1-1.7 1.7 1.7 1.7 0 0 1 1.7-1.7m0-4.315a6.02 6.02 0 1 0 6.02 6.02 6.02 6.02 0 0 0-6.02-6.02z" fill="#fff"/></svg>
